static/images/mobile/copyright/wikipedia-wordmark-fr.svg

<?xml version="1.0" encoding="UTF-8"?>
<svg xmlns="http://www.w3.org/2000/svg" width="119" height="18" viewBox="0 0 119 18">
	<title>
		Combined Shape
	</title>
	<g id="Page-1" fill="none" fill-rule="evenodd" stroke="none" stroke-width="1">
		<path id="Combined-Shape" fill="#000" fill-rule="nonzero" d="M15.2330492,0.0670794807 C16.6607409,0.0570676179 19.8675405,0.0670794807 19.8675405,0.0670794807 L19.8675405,0.0670794807 L19.9246081,0.120142354 L19.9246081,0.616730748 C19.9246081,0.753893268 19.8475168,0.821973936 19.6953365,0.821973936 C18.9484515,0.857015455 18.79527,0.93110324 18.5219462,1.32456945 C18.3727694,1.5398245 18.0784206,2.00137137 17.7730588,2.51898468 L17.7730588,2.51898468 L15.1519532,7.4207927 C15.1519532,7.4207927 15.1264525,7.47406486 15.0790923,7.5728098 L18.2816615,14.1287408 L18.4758916,14.1818036 L23.5218705,2.20661456 C23.6970781,1.72404277 23.670046,1.38163707 23.4447791,1.18039862 C23.218511,0.984166113 23.0593224,0.868028504 22.4746296,0.844000034 L22.0010685,0.819971563 C21.9429997,0.819971563 21.8879344,0.798946651 21.8348716,0.759900386 C21.7828099,0.722856494 21.7557779,0.673798366 21.7557779,0.614728376 L21.7557779,0.116137608 L21.8278633,0.0650771082 L27.5286179,0.0650771082 L27.5286179,0.0650771082 L27.5866867,0.116137608 L27.5866867,0.614728376 C27.5866867,0.749888523 27.5095954,0.81796919 27.3574151,0.81796919 C26.6105301,0.851008338 26.0568741,1.01320051 25.6984494,1.30254335 C25.3390235,1.59388856 25.0586914,1.99536426 24.8574529,2.51698231 C24.8574529,2.51698231 20.2169545,13.1385675 18.6290731,16.6687504 C18.021353,17.8261217 17.4236448,17.719996 16.898022,16.6357112 C16.2398894,15.2802784 14.8733082,12.2909114 13.869367,10.0808435 C12.7961195,12.294863 11.325718,15.2972683 10.5965556,16.6497278 C9.8877157,17.8821881 9.3040241,17.7209971 8.83947366,16.6817658 C7.22656257,12.8762567 3.91463835,6.19433951 2.35579132,2.44990283 C2.06744967,1.76008548 1.85019224,1.31756114 1.64494906,1.14235354 C1.43870468,0.969148319 1.01019696,0.865024946 0.358424688,0.829983426 C0.119141167,0.803952582 8.31335001e-13,0.745883778 8.31335001e-13,0.651772268 L8.31335001e-13,0.651772268 L8.31335001e-13,0.130154216 L0.0580688042,0.0790937161 C1.05689935,0.0734399583 5.66526626,0.0784285681 6.20397091,0.0790350266 L6.25541187,0.0790937161 L6.31348068,0.130154216 L6.31348068,0.626742611 C6.31348068,0.763905131 6.22637747,0.829983426 6.05517462,0.829983426 L6.05517462,0.829983426 L5.40840828,0.857015455 C4.85375108,0.88004274 4.57642248,1.04623966 4.57642248,1.35360385 C4.57642248,1.49677349 4.63449129,1.7290487 4.76364432,2.04242001 C6.0051153,5.06700376 10.2931961,14.1087171 10.2931961,14.1087171 L10.2931961,14.1087171 L10.4503824,14.1497657 L13.2140978,8.63574154 C12.8763557,7.88958795 12.6610017,7.41178203 12.6610017,7.41178203 L10.7607501,3.6773572 C10.7607501,3.6773572 10.3933148,2.93047224 10.2681665,2.68217804 C9.43317713,1.02721712 9.45119848,0.93911273 8.60719845,0.827981053 C8.37091848,0.796944279 8.24877376,0.76690869 8.24877376,0.649769895 L8.24877376,0.126149471 L8.31985798,0.075088971 C9.84466469,0.0730865984 13.237685,0.0730865984 13.237685,0.0730865984 L13.3678392,0.116137608 L13.3678392,0.63775566 C13.3678392,0.756896827 13.2827384,0.81796919 13.1095331,0.81796919 L12.7531108,0.869029691 C11.8520432,0.93911273 11.9992176,1.30754928 12.597927,2.49996214 L14.421,6.23 L16.4374763,2.20861693 C16.7523828,1.52180314 16.7131986,1.31554097 16.5934282,1.1527116 L16.5666294,1.11832507 C16.4865345,1.02221119 16.2182165,0.869029691 15.6345249,0.84500122 L15.6345249,0.84500122 L15.4052533,0.819971563 C15.3471845,0.819971563 15.2931204,0.799947837 15.2400575,0.760901572 C15.1879959,0.72385768 15.161965,0.675800739 15.161965,0.614728376 L15.161965,0.614728376 L15.161965,0.118139981 Z M36.4411782,5.33632287 C37.171043,5.33632287 38.8099849,5.28426118 38.8099849,5.28426118 L38.8360158,5.33632287 L38.8360158,5.90900142 C38.8360158,5.98709395 38.7839541,6.01312479 38.6798307,6.03915564 L38.3934914,6.09221851 C37.5865353,6.24740238 37.300196,6.37855779 37.300196,6.90017584 L37.300196,10.8308332 C38.1592139,10.8308332 38.6537999,10.38931 39.799157,9.1648592 C40.8403907,8.01850091 41.6473469,7.05736208 41.6473469,6.56177488 C41.6473469,6.35252694 41.4130693,6.11925054 40.8924524,6.04015682 C40.788329,6.01512717 40.7362673,5.98809514 40.7362673,5.91000261 L40.7362673,5.31029203 L40.7622982,5.28526237 C40.7622982,5.28526237 42.8707965,5.33732406 43.6256909,5.33732406 C44.3024929,5.33732406 45.44785,5.28526237 45.44785,5.28526237 L45.5259425,5.31029203 L45.5259425,5.91000261 C45.5259425,5.98809514 45.44785,6.04015682 45.3176958,6.04015682 C44.3024929,6.11824935 43.5996601,6.17031104 42.6625497,7.23757561 L40.4238972,9.81362791 C39.9813729,10.2831843 39.8251878,10.5685224 39.8251878,10.7777703 C39.8251878,10.9339554 39.9293112,11.0631084 40.0594654,11.2192934 L43.9901228,15.9569069 C44.3024929,16.3203375 44.9272331,16.4775238 45.44785,16.580646 L45.5780042,16.6056756 C45.6560967,16.6317065 45.7602201,16.6837682 45.7602201,16.7618607 L45.7602201,17.3085084 L45.6821276,17.3345392 C45.6821276,17.3345392 44.460029,17.3114808 43.7085944,17.308768 L43.5736293,17.3085084 C42.9228582,17.3085084 41.9857478,17.3345392 41.9857478,17.3345392 L41.959717,17.3085084 L41.959717,16.9961383 C41.959717,16.6567361 41.9336861,16.3723992 41.5692543,15.9559057 L38.6798307,12.3626482 C38.2893681,11.8410301 37.8728746,11.7128783 37.300196,11.7128783 L37.300196,15.5684466 C37.300196,16.1411252 37.638597,16.4274645 38.3934914,16.5576187 L38.6798307,16.6106816 C38.7579233,16.6357112 38.8360158,16.6617421 38.8360158,16.7658654 L38.8360158,17.3125131 L38.8099849,17.365576 C38.8099849,17.365576 37.3381246,17.3179517 36.5191948,17.3129386 L36.3891165,17.3125131 C35.6602529,17.3125131 33.5257238,17.365576 33.5257238,17.365576 L33.4736621,17.3125131 L33.4736621,16.7658654 C33.4736621,16.6617421 33.5517546,16.6106816 33.655878,16.6106816 L34.1764948,16.5576187 C34.9574201,16.4795262 35.2958211,16.0630327 35.2958211,15.5684466 L35.2958211,6.90017584 C35.2958211,6.32849847 35.0094818,6.17031104 34.1764948,6.09422088 L33.655878,6.04015682 C33.5517546,6.04015682 33.4736621,6.01612835 33.4736621,5.93603345 L33.4736621,5.33632287 L33.4996929,5.28426118 C33.4996929,5.28426118 35.6342221,5.33632287 36.4411782,5.33632287 Z M110.487914,0.182215903 C110.851345,0.182215903 110.9825,0.443525522 111.189746,0.964142387 L116.526069,15.0728594 C116.891502,16.0890635 117.412119,16.478525 118.453352,16.5826483 L118.739692,16.607678 C118.869846,16.607678 119,16.6857705 119,16.8169259 L119,17.3105108 L118.921907,17.3625725 C118.921907,17.3625725 117.088037,17.3149395 116.040111,17.3107975 L115.90233,17.3105108 C114.99125,17.3105108 112.439226,17.3625725 112.439226,17.3625725 L112.414197,17.3105108 L112.414197,16.8169259 C112.414197,16.6857705 112.466258,16.607678 112.598415,16.607678 L113.327279,16.5556163 C114.315449,16.478525 114.681884,16.1641525 114.420574,15.4362901 L112.832693,11.0360764 L107.418277,11.0360764 C106.793537,11.0360764 106.637352,11.1401997 106.508199,11.4775995 L104.997409,15.253073 C104.7371,15.9058464 105.075501,16.4795262 106.038642,16.5576187 L106.793537,16.6106816 C106.89766,16.6106816 107.001784,16.6887741 107.001784,16.8179271 L107.001784,17.3125131 L106.949722,17.365576 C106.949722,17.365576 104.334809,17.3166733 103.572886,17.3127611 L103.48762,17.3125131 C102.809817,17.3125131 101.143843,17.365576 101.143843,17.365576 L101.09078,17.3125131 L101.09078,16.8179271 C101.09078,16.6887741 101.168872,16.6106816 101.300028,16.6106816 C102.446386,16.532589 103.095155,16.3233411 103.824018,14.6573671 L109.601864,1.12032745 C109.887202,0.443525522 110.09645,0.182215903 110.487914,0.182215903 Z M97.0800276,5.33632287 C97.7828604,5.33632287 99.7882365,5.28426118 99.7882365,5.28426118 L99.8132661,5.33632287 L99.8132661,5.90900142 C99.8132661,5.98709395 99.7602033,6.03915564 99.6570811,6.03915564 L99.1104334,6.09221851 C98.3034772,6.16930985 98.017138,6.37855779 98.017138,6.90017584 L98.0191403,15.5684466 C98.0191403,16.1411252 98.2794488,16.4795262 99.1124357,16.5576187 L99.6590835,16.6106816 C99.737176,16.6106816 99.8152685,16.6617421 99.8152685,16.7658654 L99.8152685,17.3125131 L99.7892377,17.365576 C99.7892377,17.365576 97.9866556,17.3172274 97.1218125,17.3128321 L97.0049386,17.3125131 C96.2750738,17.3125131 94.2456692,17.365576 94.2456692,17.365576 L94.1926064,17.3125131 L94.1926064,16.7658654 C94.1926064,16.6617421 94.2706989,16.6106816 94.3748223,16.6106816 L94.8964403,16.5576187 C95.754457,16.4795262 96.0157666,16.0630327 96.0157666,15.5684466 L96.0157666,6.90017584 C96.0157666,6.32849847 95.7023953,6.17031104 94.8964403,6.09422088 L94.3748223,6.04015682 C94.2706989,6.04015682 94.1926064,6.01612835 94.1926064,5.93603345 L94.1926064,5.33632287 L94.2186372,5.28426118 C94.2186372,5.28426118 96.2750738,5.33632287 97.0800276,5.33632287 Z M50.3967138,5.33632287 C51.0995465,5.33632287 53.1039215,5.28426118 53.1039215,5.28426118 L53.1299523,5.33632287 L53.1299523,5.90900142 C53.1299523,5.98709395 53.0778906,6.03915564 52.9737672,6.03915564 L52.4271195,6.09221851 C51.6201634,6.16930985 51.3338241,6.37855779 51.3338241,6.90017584 L51.3338241,15.5684466 C51.3338241,16.1411252 51.5941325,16.4795262 52.4271195,16.5576187 L52.9737672,16.6106816 C53.0518598,16.6106816 53.1299523,16.6617421 53.1299523,16.7658654 L53.1299523,17.3125131 L53.1039215,17.365576 C53.1039215,17.365576 51.3013393,17.3172274 50.4356256,17.3128321 L50.3186212,17.3125131 C49.5897576,17.3125131 47.5593518,17.365576 47.5593518,17.365576 L47.5072902,17.3125131 L47.5072902,16.7658654 C47.5072902,16.6617421 47.5853827,16.6106816 47.6895061,16.6106816 L48.2101229,16.5576187 C49.0691407,16.4795262 49.3294492,16.0630327 49.3294492,15.5684466 L49.3294492,6.90017584 C49.3294492,6.32849847 49.0170791,6.17031104 48.2101229,6.09422088 L47.6895061,6.04015682 C47.5853827,6.04015682 47.5072902,6.01612835 47.5072902,5.93603345 L47.5072902,5.33632287 L47.533321,5.28426118 C47.533321,5.28426118 49.5897576,5.33632287 50.3967138,5.33632287 Z M28.6809834,5.33632287 C29.3838161,5.33632287 31.388191,5.28426118 31.388191,5.28426118 L31.4142219,5.33632287 L31.4142219,5.90900142 C31.4142219,5.98709395 31.3621602,6.03915564 31.2580368,6.03915564 L30.7113891,6.09221851 C29.904433,6.16930985 29.6180937,6.37855779 29.6180937,6.90017584 L29.6180937,15.5684466 C29.6180937,16.1411252 29.8784021,16.4795262 30.7113891,16.5576187 L31.2580368,16.6106816 C31.3361294,16.6106816 31.4142219,16.6617421 31.4142219,16.7658654 L31.4142219,17.3125131 L31.388191,17.365576 C31.388191,17.365576 29.5856089,17.3172274 28.7198952,17.3128321 L28.6028908,17.3125131 C27.8740272,17.3125131 25.8436214,17.365576 25.8436214,17.365576 L25.7915597,17.3125131 L25.7915597,16.7658654 C25.7915597,16.6617421 25.8696523,16.6106816 25.9737757,16.6106816 L26.4943925,16.5576187 C27.3534103,16.4795262 27.6137188,16.0630327 27.6137188,15.5684466 L27.6137188,6.90017584 C27.6137188,6.32849847 27.3003475,6.17031104 26.4943925,6.09422088 L25.9737757,6.04015682 C25.8696523,6.04015682 25.7915597,6.01612835 25.7915597,5.93603345 L25.7915597,5.33632287 L25.8175906,5.28426118 C25.8175906,5.28426118 27.8740272,5.33632287 28.6809834,5.33632287 Z M81.9551065,5.33732406 C82.4476901,5.33732406 84.7143759,5.28526237 85.3911778,5.28526237 C89.7383286,5.28526237 91.8738589,7.99247007 91.8738589,11.4545722 C91.8738589,16.010971 88.6450332,17.3625725 85.7566108,17.3625725 C83.7837469,17.3625725 82.8631103,17.3158467 82.0855358,17.3109282 L81.9571088,17.3105108 C81.1751824,17.3105108 79.1968383,17.3625725 79.1968383,17.3625725 L79.1708074,17.3105108 L79.1708074,16.7638631 C79.1688051,16.6887741 79.2218679,16.6106816 79.3249901,16.6106816 L79.9236995,16.5576187 C80.705626,16.4795262 80.9659344,16.2452486 80.9659344,15.4392936 L80.9659344,6.84911534 C80.9659344,6.17031104 80.7817162,6.17031104 79.9236995,6.09422088 L79.3530233,6.04015682 C79.2489,6.04015682 79.1688051,5.98809514 79.1688051,5.91000261 L79.1688051,5.33732406 L79.1938347,5.28526237 C79.1938347,5.28526237 81.4855501,5.33732406 81.9551065,5.33732406 Z M66.997819,5.28426118 L69.6009033,5.33632287 L76.3168609,5.33632287 C76.3428917,6.45564913 76.4990768,7.47085202 76.6812927,8.46002406 L76.6812927,8.46002406 L76.0305216,8.53811659 C75.7702132,7.60100623 75.2756251,6.22137154 73.6096532,6.22137154 L73.6096532,6.22137154 L71.5271857,6.22137154 C71.0326007,6.22137154 70.7722912,6.32549491 70.7722912,6.76801925 L70.7722912,6.76801925 L70.7722912,10.6205841 L72.7246045,10.6205841 C73.4534671,10.6205841 73.635684,10.3082139 73.7398074,9.78759707 L73.7398074,9.78759707 L73.8959924,9.24094936 C73.8959924,9.16285683 73.9480541,9.11079514 74.0521775,9.11079514 L74.0521775,9.11079514 L74.4947018,9.11079514 C74.5467635,9.11079514 74.5467635,9.13682599 74.5467635,9.18888767 C74.4947018,9.76156623 74.3905785,10.4904298 74.3905785,11.1151701 C74.3905785,11.7659412 74.4947018,12.3125889 74.5467635,12.9112983 L74.5467635,12.9112983 L74.4947018,12.9633599 L74.0521775,12.9633599 C73.9220233,12.9633599 73.8699616,12.9112983 73.8699616,12.8332057 L73.8699616,12.8332057 L73.7398074,12.2605272 C73.635684,11.7399103 73.4014054,11.453571 72.7246045,11.453571 L72.7246045,11.453571 L70.7722912,11.453571 L70.7722912,15.8007219 C70.7722912,16.2953079 71.0586315,16.4254621 71.5271857,16.4254621 L71.5271857,16.4254621 L73.7658382,16.4254621 C75.3537187,16.4254621 75.9263992,15.3842284 76.3428917,14.0566554 L76.3428917,14.0566554 L76.9936628,14.1347479 C76.6812927,15.4102592 76.4990768,16.4775238 76.4470151,17.3105108 L76.4470151,17.3105108 L69.5748725,17.3105108 L66.997819,17.3625725 L66.9717881,17.3105108 L66.9717881,16.7378322 C66.9717881,16.6857705 66.997819,16.607678 67.1279732,16.607678 L67.1279732,16.607678 L67.7266826,16.5556163 C68.5336377,16.4775238 68.7679163,16.269277 68.7679163,15.7486602 L68.7679163,15.7486602 L68.7679163,6.87214262 C68.7679163,6.27343323 68.4555452,6.11724817 67.7266826,6.06518648 L67.7266826,6.06518648 L67.1279732,6.01312479 C66.9717881,5.98709395 66.9717881,5.93503227 66.9717881,5.90900142 L66.9717881,5.90900142 L66.9717881,5.33632287 L66.997819,5.28426118 Z M57.9476607,5.33732406 C58.6765243,5.33732406 59.717758,5.28526237 60.6808992,5.28526237 C64.3752766,5.28526237 65.0520785,7.10642021 65.0520785,8.46202643 C65.0520785,10.0248782 64.2971841,12.4707763 60.6028067,12.4707763 C59.9520356,12.4707763 59.4314187,12.4177134 58.9618624,12.2104679 L58.9618624,15.6965985 C58.9618624,16.269277 59.2742325,16.4004324 60.1082207,16.5295855 L60.6298387,16.607678 C60.7339621,16.6337088 60.8120546,16.6607409 60.8120546,16.7638631 L60.8120546,17.3105108 L60.787025,17.3625725 C60.787025,17.3625725 58.8895701,17.3151361 58.0152315,17.3108237 L57.8976014,17.3105108 C57.1687377,17.3105108 55.2164245,17.3625725 55.2164245,17.3625725 L55.1903937,17.3105108 L55.1903937,16.7638631 C55.1903937,16.6597397 55.2424553,16.6337088 55.3465787,16.607678 L55.8932264,16.5295855 C56.7001826,16.4254621 56.960491,16.1911845 56.960491,15.6965985 L56.9584886,6.95123634 C56.9584886,6.1442802 56.6200877,6.11824935 55.396638,6.04015682 C55.240453,6.04015682 55.2144221,5.96306548 55.2144221,5.91000261 L55.2144221,5.31129321 L55.2664838,5.28526237 C55.6569465,5.28526237 57.1927662,5.33732406 57.9476607,5.33732406 Z M84.6362833,6.04015682 C83.6210804,6.04015682 82.9703094,6.19634188 82.9703094,6.84911534 L82.9703094,15.4392936 C82.9703094,16.1661549 83.1515241,16.6106816 85.1308693,16.6106816 C87.9932609,16.6106816 89.6091756,15.5444182 89.6091756,11.8980977 C89.6091756,9.19189123 89.009465,6.04015682 84.6362833,6.04015682 Z M60.5247142,6.04115801 C59.2742325,6.04115801 58.9618624,6.2754356 58.9618624,6.95223753 L58.9628636,11.4816043 C59.4834804,11.6908522 60.1342515,11.7158818 60.6548684,11.7158818 C62.2177202,11.7158818 62.9696111,10.7767691 62.9696111,8.77439655 C62.9696111,6.53574403 61.9544082,6.04115801 60.5247142,6.04115801 Z M109.891207,2.99454816 L109.839146,2.99454816 L107.236061,9.60638235 C107.131938,9.86769197 107.313153,9.94478331 107.885831,9.94478331 L112.416199,9.94478331 L112.416199,9.94378213 L109.891207,2.99454816 Z M73.2452214,4.4408921e-14 C73.974084,4.4408921e-14 74.3124859,0.286339276 74.5207327,0.468555179 C74.5727944,0.520616865 74.624856,0.572678552 74.6769177,0.598709395 L74.6769177,0.598709395 L74.7550103,0.885048671 L71.7614633,3.72241059 C71.3710016,4.11287324 71.1887847,4.24302745 71.0065688,4.24302745 C70.8243529,4.24302745 70.642137,4.08684239 70.642137,3.93065733 C70.642137,3.77447227 70.642137,3.59225637 70.7983221,3.33194794 L70.7983221,3.33194794 L72.8807895,0.0520616865 C72.9588821,0.0260308433 73.1150671,4.4408921e-14 73.2452214,4.4408921e-14 Z"/>
	</g>
</svg>

<svg xmlns="http://www.w3.org/2000/svg" width="119" height="18"><path fill="#000" fill-rule="nonzero" d="M15.233.067c1.428-.01 4.635 0 4.635 0l.057.053v.497c0 .137-.077.205-.23.205-.747.035-.9.11-1.173.503-.15.215-.444.676-.749 1.194l-2.621 4.902-.073.152 3.203 6.556.194.053 5.046-11.975c.175-.483.148-.825-.077-1.027-.226-.196-.386-.312-.97-.336L22 .82a.278.278 0 0 1-.166-.06.172.172 0 0 1-.08-.145V.116l.073-.05h5.7l.059.05v.499c0 .135-.077.203-.23.203-.746.033-1.3.195-1.659.485s-.64.692-.84 1.214c0 0-4.641 10.622-6.229 14.152-.608 1.157-1.205 1.051-1.731-.033-.658-1.356-2.025-4.345-3.029-6.555-1.073 2.214-2.543 5.216-3.272 6.569-.71 1.232-1.293 1.071-1.758.032C7.227 12.876 3.915 6.194 2.356 2.45c-.289-.69-.506-1.132-.711-1.308C1.439.97 1.01.865.358.83.12.804 0 .746 0 .652V.13L.058.08C1.057.072 5.665.077 6.204.078h.051l.058.051v.497c0 .137-.087.203-.258.203l-.647.027c-.554.023-.832.19-.832.497 0 .143.058.375.188.688 1.241 3.025 5.53 12.067 5.53 12.067l.156.04 2.764-5.513-.553-1.224-1.9-3.735s-.368-.747-.493-.995C9.433 1.027 9.451.94 8.608.828 8.37.797 8.247.767 8.247.65V.126l.072-.05C9.845.072 13.238.072 13.238.072l.13.043v.522c0 .119-.085.18-.258.18l-.357.051c-.901.07-.754.439-.155 1.631l1.823 3.73 2.016-4.021c.315-.687.276-.893.156-1.056l-.026-.035c-.08-.096-.349-.249-.932-.273l-.23-.025a.274.274 0 0 1-.165-.06.17.17 0 0 1-.078-.145V.118zm21.208 5.27c.73 0 2.369-.053 2.369-.053l.026.052v.573c0 .078-.052.104-.156.13l-.287.053c-.806.155-1.093.287-1.093.808v3.93c.86 0 1.354-.44 2.5-1.665 1.04-1.146 1.847-2.108 1.847-2.603 0-.21-.234-.443-.755-.522-.104-.025-.156-.052-.156-.13v-.6l.026-.025s2.109.052 2.864.052c.676 0 1.822-.052 1.822-.052l.078.025v.6c0 .078-.078.13-.208.13-1.016.078-1.718.13-2.655 1.198l-2.24 2.576c-.442.47-.598.755-.598.964 0 .156.104.285.234.441l3.931 4.738c.312.363.937.52 1.458.624l.13.025c.078.026.182.078.182.156v.547l-.078.026s-1.222-.024-1.973-.026h-.135c-.651 0-1.588.026-1.588.026l-.026-.026v-.313c0-.34-.026-.624-.39-1.04l-2.89-3.593c-.39-.522-.807-.65-1.38-.65v3.855c0 .573.339.86 1.093.99l.287.053c.078.025.156.05.156.155v.547l-.026.053s-1.472-.048-2.29-.053h-.13c-.73 0-2.864.053-2.864.053l-.052-.053v-.547c0-.104.078-.155.182-.155l.52-.053c.781-.078 1.12-.495 1.12-.99V6.9c0-.572-.287-.73-1.12-.806l-.52-.054c-.104 0-.182-.024-.182-.104v-.6l.026-.052s2.134.052 2.941.052zM110.488.181c.363 0 .495.262.702.782l5.336 14.109c.366 1.016.886 1.406 1.927 1.51l.287.025c.13 0 .26.078.26.209v.494l-.078.052s-1.834-.048-2.882-.052h-.138c-.91 0-3.463.052-3.463.052l-.025-.052v-.494c0-.131.052-.21.184-.21l.73-.051c.987-.077 1.354-.392 1.093-1.12l-1.588-4.4h-5.415c-.624 0-.78.104-.91.442l-1.51 3.775c-.26.653.078 1.227 1.04 1.305l.756.053c.104 0 .208.078.208.207v.495l-.052.053s-2.615-.05-3.377-.053h-.085c-.678 0-2.344.053-2.344.053l-.053-.053v-.495c0-.13.078-.207.209-.207 1.146-.078 1.795-.288 2.524-1.954l5.778-13.537c.285-.676.494-.938.886-.938zM97.08 5.336c.703 0 2.708-.052 2.708-.052l.025.052v.573c0 .078-.053.13-.156.13l-.547.053c-.807.077-1.093.287-1.093.808l.002 8.668c0 .573.26.912 1.093.99l.547.053c.078 0 .156.05.156.155v.547l-.026.053s-1.802-.049-2.667-.053h-.117c-.73 0-2.76.053-2.76.053l-.052-.053v-.547c0-.104.078-.155.182-.155l.521-.053c.858-.078 1.12-.495 1.12-.99V6.9c0-.572-.314-.73-1.12-.806l-.521-.054c-.104 0-.182-.024-.182-.104v-.6l.026-.052s2.056.052 2.861.052zm-46.683 0c.703 0 2.707-.052 2.707-.052l.026.052v.573c0 .078-.052.13-.156.13l-.547.053c-.807.077-1.093.287-1.093.808v8.668c0 .573.26.912 1.093.99l.547.053c.078 0 .156.05.156.155v.547l-.026.053s-1.803-.049-2.668-.053h-.117c-.73 0-2.76.053-2.76.053l-.052-.053v-.547c0-.104.078-.155.183-.155l.52-.053c.86-.078 1.12-.495 1.12-.99V6.9c0-.572-.313-.73-1.12-.806l-.52-.054c-.105 0-.183-.024-.183-.104v-.6l.026-.052s2.057.052 2.864.052zm-21.716 0c.703 0 2.707-.052 2.707-.052l.026.052v.573c0 .078-.052.13-.156.13l-.547.053c-.807.077-1.093.287-1.093.808v8.668c0 .573.26.912 1.093.99l.547.053c.078 0 .156.05.156.155v.547l-.026.053s-1.802-.049-2.668-.053h-.117c-.729 0-2.76.053-2.76.053l-.051-.053v-.547c0-.104.078-.155.182-.155l.52-.053c.86-.078 1.12-.495 1.12-.99V6.9c0-.572-.314-.73-1.12-.806l-.52-.054c-.104 0-.182-.024-.182-.104v-.6l.026-.052s2.056.052 2.863.052zm53.274.001c.493 0 2.76-.052 3.436-.052 4.347 0 6.483 2.707 6.483 6.17 0 4.556-3.229 5.908-6.117 5.908-1.973 0-2.894-.047-3.671-.052h-.129c-.782 0-2.76.052-2.76.052l-.026-.052v-.547a.147.147 0 0 1 .154-.153l.599-.053c.782-.078 1.042-.313 1.042-1.119V6.85c0-.679-.184-.679-1.042-.755l-.571-.054c-.104 0-.184-.052-.184-.13v-.573l.025-.052s2.292.052 2.761.052zm-14.957-.053 2.603.052h6.716c.026 1.12.182 2.135.364 3.124l-.65.078c-.26-.937-.755-2.317-2.421-2.317h-2.083c-.494 0-.755.104-.755.547v3.853h1.953c.728 0 .91-.313 1.015-.833l.156-.547c0-.078.052-.13.156-.13h.443c.052 0 .052.026.052.078-.052.573-.156 1.301-.156 1.926 0 .65.104 1.198.156 1.796l-.052.052h-.443c-.13 0-.182-.052-.182-.13l-.13-.572c-.104-.521-.339-.807-1.015-.807h-1.953V15.8c0 .494.287.624.755.624h2.239c1.588 0 2.16-1.04 2.577-2.368l.65.078c-.312 1.275-.494 2.343-.546 3.176h-6.872l-2.577.052-.026-.052v-.573c0-.052.026-.13.156-.13l.599-.052c.807-.078 1.04-.287 1.04-.807V6.872c0-.599-.311-.755-1.04-.807l-.599-.052c-.156-.026-.156-.078-.156-.104v-.573l.026-.052zm-9.05.053c.729 0 1.77-.052 2.733-.052 3.694 0 4.371 1.821 4.371 3.177 0 1.563-.755 4.009-4.45 4.009-.65 0-1.17-.053-1.64-.26v3.486c0 .572.312.703 1.146.833l.522.078c.104.026.182.053.182.156v.547l-.025.052s-1.897-.048-2.772-.052h-.117c-.73 0-2.682.052-2.682.052l-.026-.052v-.547c0-.104.052-.13.157-.156l.546-.078c.807-.105 1.067-.339 1.067-.833l-.002-8.746c0-.807-.338-.833-1.561-.91-.157 0-.183-.078-.183-.131v-.599l.052-.026c.39 0 1.927.052 2.682.052zm26.688.703c-1.015 0-1.666.156-1.666.81v8.59c0 .726.182 1.17 2.16 1.17 2.863 0 4.48-1.066 4.48-4.712 0-2.706-.6-5.858-4.974-5.858zm-24.111.001c-1.25 0-1.563.234-1.563.911v4.53c.521.209 1.172.234 1.693.234 1.563 0 2.315-.94 2.315-2.942 0-2.238-1.016-2.733-2.445-2.733zm49.366-3.046h-.052l-2.603 6.611c-.104.262.077.339.65.339h4.53v-.001l-2.525-6.95zM73.245 0c.73 0 1.067.286 1.276.469.052.052.104.104.156.13l.078.286-2.994 2.837c-.39.39-.572.521-.754.521-.183 0-.365-.156-.365-.312 0-.157 0-.339.156-.6L72.881.053c.078-.026.234-.052.364-.052z"/></svg>
